actions/scalable/office-chart-polar-stacked.svg

<?xml version="1.0" encoding="UTF-8" standalone="no"?>
<!-- Created with Inkscape (http://www.inkscape.org/) -->

<svg
   xmlns:dc="http://purl.org/dc/elements/1.1/"
   xmlns:cc="http://creativecommons.org/ns#"
   xmlns:rdf="http://www.w3.org/1999/02/22-rdf-syntax-ns#"
   xmlns:svg="http://www.w3.org/2000/svg"
   xmlns="http://www.w3.org/2000/svg"
   xmlns:sodipodi="http://sodipodi.sourceforge.net/DTD/sodipodi-0.dtd"
   xmlns:inkscape="http://www.inkscape.org/namespaces/inkscape"
   width="22"
   height="22"
   id="svg3760"
   version="1.1"
   inkscape:version="0.48+devel r"
   sodipodi:docname="office-chart-polar-stacked.svg">
  <defs
     id="defs3762" />
  <sodipodi:namedview
     id="base"
     pagecolor="#ffffff"
     bordercolor="#666666"
     borderopacity="1.0"
     inkscape:pageopacity="0.0"
     inkscape:pageshadow="2"
     inkscape:zoom="22.627417"
     inkscape:cx="9.6651958"
     inkscape:cy="12.187478"
     inkscape:document-units="px"
     inkscape:current-layer="layer1"
     showgrid="true"
     fit-margin-top="0"
     fit-margin-left="0"
     fit-margin-right="0"
     fit-margin-bottom="0"
     inkscape:window-width="1366"
     inkscape:window-height="666"
     inkscape:window-x="-2"
     inkscape:window-y="25"
     inkscape:window-maximized="1"
     inkscape:showpageshadow="false"
     showguides="true">
    <inkscape:grid
       type="xygrid"
       id="grid4106"
       originx="-0.99998557px"
       originy="-1.0000252px" />
    <sodipodi:guide
       position="2.00001,19.99997"
       orientation="0,18"
       id="guide4229" />
    <sodipodi:guide
       position="20.00001,19.99997"
       orientation="18,0"
       id="guide4231" />
    <sodipodi:guide
       position="20.00001,1.99997"
       orientation="0,-18"
       id="guide4233" />
    <sodipodi:guide
       position="2.00001,1.99997"
       orientation="-18,0"
       id="guide4235" />
    <sodipodi:guide
       position="3.00001,18.99997"
       orientation="0,16"
       id="guide4237" />
    <sodipodi:guide
       position="19.00001,18.99997"
       orientation="16,0"
       id="guide4239" />
    <sodipodi:guide
       position="19.00001,2.99997"
       orientation="0,-16"
       id="guide4241" />
    <sodipodi:guide
       position="3.00001,2.99997"
       orientation="-16,0"
       id="guide4243" />
  </sodipodi:namedview>
  <metadata
     id="metadata3765">
    <rdf:RDF>
      <cc:Work
         rdf:about="">
        <dc:format>image/svg+xml</dc:format>
        <dc:type
           rdf:resource="http://purl.org/dc/dcmitype/StillImage" />
        <dc:title />
      </cc:Work>
    </rdf:RDF>
  </metadata>
  <g
     inkscape:label="Capa 1"
     inkscape:groupmode="layer"
     id="layer1"
     transform="translate(-551.28571,-607.64788)">
    <path
       style="opacity:1;fill:#666666;fill-opacity:1;stroke:none;stroke-width:2.79999995;stroke-miterlimit:4;stroke-dasharray:none;stroke-opacity:0.55026455"
       d="M 11 3 C 6.568 3 3 6.568 3 11 C 3 15.432 6.568 19 11 19 C 15.432 19 19 15.432 19 11 C 19 6.568 15.432 3 11 3 z M 11 4 C 12.365929 4 13.634027 4.3931964 14.708984 5.0644531 C 15.618634 5.6324839 16.384617 6.4024299 16.949219 7.3144531 C 16.385005 6.4035441 15.61847 5.6323815 14.708984 5.0644531 L 12.058594 9.3066406 C 12.578053 9.6314962 12.928885 10.187907 12.982422 10.833984 L 17.970703 10.417969 C 17.924314 9.8515183 17.810808 9.3043686 17.638672 8.7851562 C 17.55529 8.5336517 17.457819 8.2904541 17.347656 8.0527344 C 17.457616 8.2901976 17.5554 8.5340072 17.638672 8.7851562 C 17.810927 9.3046808 17.924316 9.8515495 17.970703 10.417969 C 17.986477 10.610583 18 10.803182 18 11 C 18 14.878 14.878 18 11 18 C 7.122 18 4 14.878 4 11 C 4 7.122 7.122 4 11 4 z M 11 5 C 9.0985593 5 7.4122069 5.8783098 6.3144531 7.25 L 9.4433594 9.7539062 C 9.8092923 9.2970958 10.366524 9 11 9 L 11 8.5 L 11 6.5 L 11 5 z M 16.957031 7.3261719 C 17.09085 7.5433107 17.212368 7.7678293 17.322266 8 C 17.212567 7.7684267 17.090569 7.542746 16.957031 7.3261719 z M 9.5839844 12.416016 L 7.4609375 14.539062 C 8.3646875 15.442813 9.615 16 11 16 L 11 14.5 L 11 13 C 10.446 13 9.9454844 12.777516 9.5839844 12.416016 z "
       transform="translate(551.28571,607.64788)"
       id="rect4219" />
  </g>
</svg>

<svg height="22" width="22" xmlns="http://www.w3.org/2000/svg" xmlns:sodipodi="http://sodipodi.sourceforge.net/DTD/sodipodi-0.dtd" xmlns:inkscape="http://www.inkscape.org/namespaces/inkscape">
 <path d="m11 3c-4.432 0-8 3.568-8 8s3.568 8 8 8 8-3.568 8-8-3.568-8-8-8zm0 1c1.366 0 2.634 0.3932 3.709 1.0645 0.91 0.568 1.676 1.3379 2.24 2.25-0.564-0.911-1.331-1.6821-2.24-2.25l-2.65 4.2421c0.519 0.3249 0.87 0.8814 0.923 1.5274l4.989-0.416c-0.047-0.5665-0.16-1.1136-0.332-1.6328-0.084-0.2515-0.181-0.4947-0.291-0.7325 0.11 0.2375 0.207 0.4813 0.291 0.7325 0.172 0.5195 0.285 1.0663 0.332 1.6328 0.015 0.193 0.029 0.385 0.029 0.582 0 3.878-3.122 7-7 7s-7-3.122-7-7 3.122-7 7-7zm0 1c-1.9014 0-3.5878 0.8783-4.6855 2.25l3.1289 2.5039c0.3659-0.4568 0.9236-0.7539 1.5566-0.7539v-0.5-2-1.5zm5.957 2.3262c0.134 0.2171 0.255 0.4416 0.365 0.6738-0.109-0.2316-0.231-0.4573-0.365-0.6738zm-7.373 5.0898l-2.1231 2.123c0.9038 0.904 2.1541 1.461 3.5391 1.461v-1.5-1.5c-0.554 0-1.0545-0.222-1.416-0.584z" fill="#4d4d4d" transform="matrix(1 0 0 1 0 0)"/>
</svg>
